source/resources/imgs/icons/svg/settings.svg

<svg xmlns="http://www.w3.org/2000/svg" width="100" height="100"><path fill-rule="evenodd" clip-rule="evenodd" fill="#BDC3C7" d="M97.55 85.718s-48.505-48.505-52.143-52.144c-4.588-4.587 3.054-15.538-5.729-24.32l-16.014-9.254-3.381 3.38 8.832 8.831c3.381 3.38.849 10.983-2.545 14.377-3.367 3.367-10.977 5.906-14.357 2.525l-8.833-8.83-3.38 3.381 9.254 16.014c8.734 8.735 19.87 1.277 24.321 5.729l52.143 52.144c3.268 3.267 8.564 3.267 11.832 0s3.267-8.566 0-11.833zm-3.381 8.451c-1.4 1.401-3.67 1.401-5.07 0-1.4-1.4-1.4-3.671 0-5.07s3.67-1.399 5.07 0 1.4 3.67 0 5.07z"/><path fill="#95A5A6" d="M33.682 12.334l-11.17-11.183-2.229 2.229 8.832 8.831c3.381 3.38.849 10.983-2.545 14.377-3.367 3.367-10.977 5.906-14.357 2.525l-8.833-8.83-1.975 1.975 11.177 11.19c1.524 1.525 3.914 2.332 6.911 2.332 4.492 0 9.453-1.824 12.063-4.437 4.417-4.42 6.311-14.822 2.126-19.009z"/><path fill="#95A5A6" d="M95.746 87.949l-49.971-49.977c-1.042-1.042-2.426-1.615-3.898-1.615s-2.857.574-3.898 1.615c-2.149 2.15-2.149 5.648 0 7.798l49.971 49.976c1.041 1.042 2.426 1.615 3.898 1.615s2.857-.573 3.898-1.615c2.149-2.148 2.149-5.646 0-7.797zm-1.577 6.22c-1.4 1.401-3.67 1.401-5.07 0-1.4-1.4-1.4-3.671 0-5.07s3.67-1.399 5.07 0 1.4 3.67 0 5.07z"/><path fill-rule="evenodd" clip-rule="evenodd" fill="#ECF0F1" d="M80 14l13-10 7 7-10 13h-5l-30 30-5-5 30-30v-5z"/><polygon fill-rule="evenodd" clip-rule="evenodd" fill="#BDC3C7" points="52.5,51.5 55,54 85,24 90,24 100,11 96.5,7.5"/><path fill-rule="evenodd" clip-rule="evenodd" fill="#D35400" d="M42.51 46.095l.854.845-37.596 37.221c-2.356 2.332-2.356 6.114 0 8.447l5.119 5.068c2.356 2.332 5.17 3.326 7.526.994l38.603-38.216.853.845c.942.933 2.471.933 3.413 0s.942-2.446 0-3.379l-15.359-15.204c-.942-.933-2.471-.933-3.413 0s-.943 2.446 0 3.379z"/><path fill-rule="evenodd" clip-rule="evenodd" fill="#E66612" d="M50.25 53.75l-41.656 41.656 2.293 2.271c2.356 2.332 5.17 3.326 7.526.994l38.573-38.186-6.736-6.735z"/></svg>

<?xml version="1.0" encoding="utf-8"?>
<!-- Generator: Adobe Illustrator 16.0.0, SVG Export Plug-In . SVG Version: 6.00 Build 0)  -->
<!DOCTYPE svg PUBLIC "-//W3C//DTD SVG 1.1//EN" "http://www.w3.org/Graphics/SVG/1.1/DTD/svg11.dtd">
<svg version="1.1" id="Layer_1" xmlns="http://www.w3.org/2000/svg" xmlns:xlink="http://www.w3.org/1999/xlink" x="0px" y="0px"
	 width="100px" height="100px" viewBox="0 0 100 100" enable-background="new 0 0 100 100" xml:space="preserve">
<g>
	<g>
		<path fill-rule="evenodd" clip-rule="evenodd" fill="#BDC3C7" d="M97.55,85.718c0,0-48.505-48.505-52.143-52.144
			c-4.588-4.587,3.054-15.538-5.729-24.32L23.664,0l-3.381,3.38l8.832,8.831c3.381,3.38,0.849,10.983-2.545,14.377
			c-3.367,3.367-10.977,5.906-14.357,2.525L3.38,20.283L0,23.664l9.254,16.014c8.734,8.735,19.87,1.277,24.321,5.729
			c3.739,3.739,52.143,52.144,52.143,52.144c3.268,3.267,8.564,3.267,11.832,0S100.817,88.985,97.55,85.718z M94.169,94.169
			c-1.4,1.401-3.67,1.401-5.07,0c-1.4-1.4-1.4-3.671,0-5.07s3.67-1.399,5.07,0S95.569,92.769,94.169,94.169z"/>
	</g>
</g>
<path fill="#95A5A6" d="M33.682,12.334L22.512,1.151L20.283,3.38l8.832,8.831c3.381,3.38,0.849,10.983-2.545,14.377
	c-3.367,3.367-10.977,5.906-14.357,2.525L3.38,20.283l-1.975,1.975l11.177,11.19c1.524,1.525,3.914,2.332,6.911,2.332h0
	c4.492,0,9.453-1.824,12.063-4.437C35.973,26.923,37.867,16.521,33.682,12.334z"/>
<path fill="#95A5A6" d="M95.746,87.949L45.775,37.972c-1.042-1.042-2.426-1.615-3.898-1.615s-2.857,0.574-3.898,1.615
	c-2.149,2.15-2.149,5.648,0,7.798l49.971,49.976c1.041,1.042,2.426,1.615,3.898,1.615s2.857-0.573,3.898-1.615
	C97.895,93.598,97.895,90.1,95.746,87.949z M94.169,94.169c-1.4,1.401-3.67,1.401-5.07,0c-1.4-1.4-1.4-3.671,0-5.07
	s3.67-1.399,5.07,0S95.569,92.769,94.169,94.169z"/>
<path fill-rule="evenodd" clip-rule="evenodd" fill="#ECF0F1" d="M80,14L93,4l7,7L90,24h-5L55,54l-5-5l30-30V14z"/>
<polygon fill-rule="evenodd" clip-rule="evenodd" fill="#BDC3C7" points="52.5,51.5 55,54 85,24 90,24 100,11 96.5,7.5 "/>
<path fill-rule="evenodd" clip-rule="evenodd" fill="#D35400" d="M42.51,46.095l0.854,0.845L5.768,84.161
	c-2.356,2.332-2.356,6.114,0,8.447l5.119,5.068c2.356,2.332,5.17,3.326,7.526,0.994l38.603-38.216l0.853,0.845
	c0.942,0.933,2.471,0.933,3.413,0s0.942-2.446,0-3.379L45.923,42.716c-0.942-0.933-2.471-0.933-3.413,0S41.567,45.162,42.51,46.095z
	"/>
<path fill-rule="evenodd" clip-rule="evenodd" fill="#E66612" d="M50.25,53.75L8.594,95.406l2.293,2.271
	c2.356,2.332,5.17,3.326,7.526,0.994l38.573-38.186L50.25,53.75z"/>
</svg>
